X:825
T: Miss Langford
T: In\'ion Langfort
S: B.Breathnach: "Ceol Rince na hEireann" II/144
Z: B.Black
L: 1/8
M: 4/4
R: reel
K: D
A2 dB A2 FA|(3Bcd AF GEEG|FD D2 FG A2|1 (3Bcd eg fddB :|2\
(3Bcd eg fdd||
g|faaf g2 ef|gfed cA A2|faaf g2 fg|afge fddg|
faaf g2 ef|gfed cAAc|BABd cdec|dfag fd d2||
